X: 059
M: 2/4
L: 1/8
K: C
|:\
EGce | {e}d2ce | {e}d2cB | cGEC |\
EGce | {e}d2ce | edcB | c4 :|
|:\
EGcB | Acfe | dedc | {c2}B4 |
EGce | {e}d2ce | {e}d2cB | cGEC |\
EGce | g3f | edcB | c4 |]

